X:1
T:El grillo è buon cantore
T:Josquin des Prez (c. 1450 - 1521)
T:567
C:Josquin des Prez
%%score [ 1 2 3 4 ]
L:1/8
Q:1/2=112
M:2/2
K:Eb
V:1 treble nm="Sopran"
V:2 treble nm="Alt"
V:3 treble-8 nm="Tenor"
V:4 bass nm="Bass"
V:1
 c8 | (B4 A4) | G4 z2 B2 | B2 B2 =A2 A2 | B4 B2 B2 | B2 B2 B2 B2 | B8- | B8- | B8 | %9
w: El|gril- *|lo, el|gril- lo~͜~è buon can-|to- re che|tie- ne lon- go|ver-|||
w: |||||||||
 !breath!!fermata!B8 | !tenuto!.c2 !tenuto!.c2 z4 | !tenuto!.c2 !tenuto!.c2 z4 | %12
w: so.|Da- le|be- ve|
w: |||
 !tenuto!.c2 !tenuto!.c2 z4 | !tenuto!.c2 !tenuto!.c2 z4 | c c c c c c c c | %15
w: gril- lo|can- ta|da- le da- le be- ve be- ve|
w: |||
 c c c c B2 !breath!B2 |: c8 | (B4 A4) | G4 z2 B2 | B2 B2 =A2 A2 | B4 !breath!B4!fine! :: %21
w: gril- lo gril- lo can- ta.|El|gril- *|lo, el|gril- lo~͜~é buon can-|to- re.|
w: ||||||
 B2 B2 B4 |[M:3/2] (B4 G2) G2 =A2 A2 | B4 B4 c2 c2 | c4 c2 B2 B2 =A2 |[M:2/2] B4 !breath!B4 :| %26
w: Ma non fa|co- * me gli~͜~altr' o|cel- li co- mo|li han can- tat' un|po- co.|
w: Van' de fat-|to _ in al- tro|lo- co sem- pre|el gril- lo sta pur|sal- do.|
 B4 A4 | B4 G4 | A4 G4 | F2 F2 z2 G2 | A4 G4 | F2 F2 z2 G2 | (A4 G4) | (F3 G A2 G2- | G2 F4 =E2) | %35
w: Quan- do|la mag-|gior el|cal- do al'|hor can-|ta sol per|a- *|mo- * * *||
w: |||||||||
 !breath!F8!D.C.! || %36
w: re.|
w: |
V:2
 c8 | F8 | B,4 z2 F2 | F2 F2 F2 F2 | F4 F2 F2 | G2 G2 G2 G2 | (G4 E3 F | G4 E3 F | G4 E3 F) | %9
w: El|gril-|lo, el|gril- lo~͜~è buon can-|to- re che|tie- ne lon- go|ver- * *|||
w: |||||||||
 !breath!!fermata!G8 | !tenuto!.A2 !tenuto!.A2 z4 | !tenuto!.A2 !tenuto!.A2 z4 | %12
w: so|Da- le|be- ve|
w: |||
 !tenuto!.A2 !tenuto!.A2 z4 | !tenuto!.A2 !tenuto!.A2 z4 | A A A A A A A A | %15
w: gril- lo|can- ta|da- le da- le be- ve be- ve|
w: |||
 A A A A G2 !breath!G2 |: c8 | F8 | B,4 z2 F2 | F2 F2 F2 F2 | F4 !breath!F4 :: G2 G2 G4 | %22
w: gril- lo gril- lo can- ta.|El|gril-|lo, el|gril- lo~͜~é buon can-|to- re.|Ma non fa|
w: ||||||Van' de fat-|
[M:3/2] (G4 B2) B2 F2 F2 | F4 F4 A2 A2 | A4 A2 F2 F2 F2 |[M:2/2] F4 !breath!F4 :| F4 F4 | F4 B,4 | %28
w: co- * me gli~͜~altr' o|cel- li co- mo|li han can- tat' un|po- co.|||
w: to _ in al- tro|lo- co sem- pre|el gril- lo sta pur|sal- do.|Quan- do|la mag-|
 (C2 F4) =E2 | F2 F2 z2 =E2 | F4 =E4 | F2 F2 z2 =E2 | C4 C4 | C2 C2 (F2 D2) | (E2 C2) C4 | %35
w: ||hor can-|ta sol al'|hor can-|ta sol per _|a- * mo-|
w: gior _ el|cal- do al'||||||
 !breath!C8 || %36
w: re.|
w: |
V:3
 e8 | (d4 c3 d) | e4 z2 d2 | d2 d2 c2 c2 | B4 B2 B2 | B2 B2 e2 e2 | (e3 f g4 | e3 f g4 | e3 f g4) | %9
w: El|gril- * *|lo, el|gril- lo~͜~è buon can-|to- re che|tie- ne lon- go|ver- * *|||
w: |||||||||
 !fermata!e8 | z4 !tenuto!.e2 !tenuto!.e2 | z4 !tenuto!.e2 !tenuto!.e2 | %12
w: so|Da- le|be- ve|
w: |||
 z4 !tenuto!.e2 !tenuto!.e2 | z4 !tenuto!.e2 !tenuto!.e2 | e e e e e e e e | %15
w: gril- lo|can- ta|da- le da- le be- ve be- ve|
w: |||
 e e e e e2 !breath!e2 |: e8 | (d4 c3 d) | e4 z2 d2 | d2 d2 c2 c2 | B4 !breath!B4 :: B2 B2 e4 | %22
w: gril- lo gril- lo can- ta.|El|gril- * *|lo, el|gril- lo~͜~é buon can-|to- re.|Ma non fa|
w: ||||||Van' de fat-|
[M:3/2] e6 e2 c2 c2 | B4 B4 e2 e2 | e4 e2 d2 c2 c2 |[M:2/2] B4 !breath!B4 :| B4 c4 | d4 e4 | %28
w: co- me gli~͜~altr' o|cel- li co- mo|li han can- tat' un|po- co.|Quan- do|la mag-|
w: to in al- tro|lo- co sem- pre|el gril- lo sta pur|sal- do.|||
 z2 c2 c4 | c2 c2 z2 c2 | c4 c4 | c2 c2 z2 c2 | (f4 =e4) | (f2 _ed c2 B2- | BAGF G4) | %35
w: gior el|cal- do al'|hor can-|ta sol per|a- *|mo- * * * *||
w: |||||||
 !breath!F8 || %36
w: re.|
w: |
V:4
 A,8 | (B,4 F,4) | E,4 z2 B,,2 | B,,2 B,,2 F,2 F,2 | B,,4 B,,2 B,,2 | E,2 E,2 E,2 E,2 | E,8- | %7
w: El|gril- *|lo, el|gril- lo~͜~è buon can-|to- re che|tie- ne lon- go|ver-|
w: |||||||
 E,8- | E,8 | !fermata!E,8 | z4 !tenuto!.A,2 !tenuto!.A,2 | z4 !tenuto!.A,2 !tenuto!.A,2 | %12
w: ||so.|Da- le|be- ve|
w: |||||
 z4 !tenuto!.A,2 !tenuto!.A,2 | z4 !tenuto!.A,2 !tenuto!.A,2 | A, A, A, A, A, A, A, A, | %15
w: gril- lo|can- ta|da- le da- le be- ve be- ve|
w: |||
 A, A, A, A, E,2 !breath!E,2 |: A,8 | (B,4 F,4) | E,4 z2 B,,2 | B,,2 B,,2 F,2 F,2 | %20
w: gril- lo gril- lo can- ta.|El|gril- *|lo, el|gril- lo~͜~é buon can-|
w: |||||
 B,,4 !breath!B,,4 :: E,2 E,2 E,4 |[M:3/2] E,6 E,2 F,2 F,2 | B,,4 B,,4 A,2 A,2 | %24
w: to- re.|Ma non fa|co- me gli~͜~altr' o|cel- li co- mo|
w: |Van' de fat-|to in al- tro|lo- co sem- pre|
 (A,3 G,) A,2 B,2 F,2 F,2 |[M:2/2] B,,4 !breath!B,,4 :| B,,4 F,4 | B,,4 E,4 | F,4 C,4 | %29
w: li _ han can- tat' un|po- co.|Quan- do|la mag-|gior el|
w: el _ gril- lo sta pur|sal- do.||||
 F,2 F,2 z2 C,2 | F,4 C,4 | F,2 F,2 z2 C,2 | F,4 C,4 | F,2 F,2 z2 G,2 | (E,2 F,2) C,4 | %35
w: cal- do al'|hor can-|ta sol al'|hor can-|ta sol per|a- * mo-|
w: ||||||
 !breath!F,8 || %36
w: re.|
w: |

